public/step3.svg

<svg width="40" height="59" viewBox="0 0 40 59" fill="none" xmlns="http://www.w3.org/2000/svg">
<g filter="url(#filter0_d_13156_9328)">
<path d="M18.7803 54.2852C15.4053 54.2852 12.3967 53.7057 9.75469 52.5466C7.12969 51.3875 5.04163 49.7767 3.49049 47.7142C1.9564 45.6347 1.12117 43.2227 0.984808 40.4784H7.42799C7.56435 42.1659 8.1439 43.6233 9.16663 44.8506C10.1894 46.0608 11.5274 46.9983 13.1808 47.6631C14.8342 48.3279 16.6666 48.6602 18.678 48.6602C20.928 48.6602 22.9223 48.2682 24.6609 47.4841C26.3996 46.7 27.7632 45.6091 28.7519 44.2114C29.7405 42.8137 30.2348 41.1943 30.2348 39.3534C30.2348 37.4273 29.7575 35.7313 28.803 34.2654C27.8484 32.7824 26.4507 31.6233 24.6098 30.7881C22.7689 29.9529 20.5189 29.5352 17.8598 29.5352H13.6666V23.9102H17.8598C19.9394 23.9102 21.7632 23.5352 23.3314 22.7852C24.9166 22.0352 26.1524 20.9784 27.0388 19.6148C27.9422 18.2512 28.3939 16.6489 28.3939 14.808C28.3939 13.0352 28.0019 11.4926 27.2178 10.1801C26.4337 8.86763 25.3257 7.8449 23.8939 7.11195C22.4791 6.37899 20.8087 6.01252 18.8825 6.01252C17.0757 6.01252 15.3712 6.3449 13.7689 7.00968C12.1837 7.6574 10.8882 8.60343 9.88254 9.84775C8.87685 11.075 8.3314 12.558 8.24617 14.2966H2.10981C2.21208 11.5523 3.03879 9.14888 4.58992 7.08638C6.14106 5.00683 8.16947 3.38752 10.6751 2.22843C13.1979 1.06933 15.9678 0.489789 18.9848 0.489789C22.2234 0.489789 25.0019 1.14604 27.32 2.45854C29.6382 3.75399 31.4195 5.46706 32.6638 7.59775C33.9081 9.72843 34.5303 12.0296 34.5303 14.5012C34.5303 17.45 33.7547 19.9642 32.2036 22.0438C30.6695 24.1233 28.5814 25.5637 25.9394 26.3648V26.7739C29.2462 27.3193 31.8286 28.7256 33.6865 30.9926C35.5445 33.2426 36.4734 36.0296 36.4734 39.3534C36.4734 42.2 35.6979 44.7568 34.1467 47.0239C32.6127 49.2739 30.5161 51.0466 27.857 52.3421C25.1979 53.6375 22.1723 54.2852 18.7803 54.2852Z" fill="white"/>
</g>
<defs>
<filter id="filter0_d_13156_9328" x="0.984863" y="0.490234" width="39.4885" height="57.7949" filterUnits="userSpaceOnUse" color-interpolation-filters="sRGB">
<feFlood flood-opacity="0" result="BackgroundImageFix"/>
<feColorMatrix in="SourceAlpha" type="matrix" values="0 0 0 0 0 0 0 0 0 0 0 0 0 0 0 0 0 0 127 0" result="hardAlpha"/>
<feOffset dx="4" dy="4"/>
<feComposite in2="hardAlpha" operator="out"/>
<feColorMatrix type="matrix" values="0 0 0 0 1 0 0 0 0 1 0 0 0 0 1 0 0 0 0.5 0"/>
<feBlend mode="normal" in2="BackgroundImageFix" result="effect1_dropShadow_13156_9328"/>
<feBlend mode="normal" in="SourceGraphic" in2="effect1_dropShadow_13156_9328" result="shape"/>
</filter>
</defs>
</svg>

<svg xmlns="http://www.w3.org/2000/svg" width="40" height="59" fill="none" viewBox="0 0 40 59"><g filter="url(#a)"><path fill="#fff" d="M18.78 54.285q-5.062 0-9.025-1.738-3.937-1.74-6.265-4.833-2.301-3.12-2.505-7.236h6.443q.204 2.532 1.739 4.373 1.533 1.815 4.014 2.812 2.48.997 5.497.997 3.375 0 5.983-1.176t4.09-3.273 1.484-4.858q0-2.889-1.432-5.088-1.432-2.224-4.193-3.477-2.762-1.253-6.75-1.253h-4.193V23.91h4.193q3.12 0 5.471-1.125 2.378-1.125 3.708-3.17 1.355-2.046 1.355-4.807 0-2.659-1.176-4.628-1.176-1.968-3.324-3.068-2.122-1.1-5.011-1.1-2.71 0-5.114.998-2.377.97-3.886 2.838-1.51 1.84-1.637 4.449H2.11q.153-4.117 2.48-7.21 2.327-3.12 6.085-4.859Q14.46.49 18.985.49q4.857 0 8.335 1.969 3.477 1.943 5.344 5.139A13.46 13.46 0 0 1 34.53 14.5q0 4.423-2.326 7.543-2.302 3.12-6.265 4.32v.41q4.96.818 7.748 4.219 2.787 3.375 2.786 8.36 0 4.27-2.326 7.67-2.3 3.376-6.29 5.32-3.99 1.942-9.077 1.942"/></g><defs><filter id="a" width="39.489" height="57.795" x=".985" y=".49" color-interpolation-filters="sRGB" filterUnits="userSpaceOnUse"><feFlood flood-opacity="0" result="BackgroundImageFix"/><feColorMatrix in="SourceAlpha" result="hardAlpha" values="0 0 0 0 0 0 0 0 0 0 0 0 0 0 0 0 0 0 127 0"/><feOffset dx="4" dy="4"/><feComposite in2="hardAlpha" operator="out"/><feColorMatrix values="0 0 0 0 1 0 0 0 0 1 0 0 0 0 1 0 0 0 0.5 0"/><feBlend in2="BackgroundImageFix" result="effect1_dropShadow_13156_9328"/><feBlend in="SourceGraphic" in2="effect1_dropShadow_13156_9328" result="shape"/></filter></defs></svg>
